X:11
T:Joe Fahey's Favourite
M:4/4
R:Hornpipe
S:phelan-2/35-x
L:1/8
K:D
FG | AF   (3EFE D2de | fedB A2Bc | dedB AFDF | EDEF E2FG  |
     AF   (3EFE D2de | fedB A2Bc | dedB AFDF | EDEF D2   :|
de | fdgf e2dB       | AFAB A2de | fdgf e2de | fede f3f   |
     fedB A2FG       | AFAB A2Bc | dedB AFDF | EDEF D2   :|

